X:1
T:The Apiarist
C:T. S. Macdonald
M:C|
L:1/8
K:D
%%text Slowiſh
a>f | e<dd>A B2 A>F | A>Bd<e f2 a>f | e<dd>A B2{cB} A>F | E6 a>f |
      e<dd>A B2 A>F | A>Bd<e f2 e>f | g>ef>d e<dB>A | B2 d2 d2 ||
e>f | g>ef>d e<dB>A | B<dd>B A2 e>f | g>ba<f g>fe>d | e6 e>f |
      g>ef>d e<dB>A | b<d'd'>b a2 e>f | g>ef>d e<dB>A | B2 d2 d2 |]

